X: 1
T: Terry Teehan's
C: Terry Teehan
R: Slow Reel
M: 4/4
L: 1/8
K: Emin
|:B2 BA B2 BA|dB AF DE FA|B2 BA B2 BA|dB AF E4|
B2 BA B2 BA|dB AF DE FA|B2 BA B2 BA|dB AF E4|
Be ef g2 fe|d2 Bd AD FA|Be ef g2 fe|dB AF E4|
Be ef g2 fe|d2 Bd AD FA|Be ed BA FE|1 DE ED EF GA:|2 DE ED E4||